X: 14972
T: Gemma's
R: reel
M: 4/4
K: Eminor
BE E/E/E BEGB|ADFA d^ced|BE E/E/E (3Bcd ef|geag fdcA|
BE E/E/E BEGB|ADFA defa|gBeg fdaf|1 edBA BEEA:|2 edBA Beef||
|:ge e/e/e Begb|afdA defa|ge e/e/e Begb|agfd Beef|
(3gfe fd eBeg|afdA defa|gBeg fdaf|1 edBA Beef:|2 edBA BEEA||

